X:341
T:Reel 341
M:4/4
K:Gmaj
L:1/8
dc|BGDG Bdgb|c'bag fgac'|bgaf gfdc|BcAB G2D2|BGBd gc'bg|fdef gfdc|BGBd gc'd'c'|bgaf g2|ga|bgdg bgd'g|bgd'g c'aac'|bgdg bgd'g|fddc' bggc'|bgdg bgd'g|fgab c'bc'a|bgaf gedc|BGAF G2|
